X: 23895
T: Loch Duich
R: jig
M: 6/8
K: Amajor
{d}v(c2 B) (ce2)|{g}(a2f) (e<f)z|{f}(e2c) (Bc2)|([A2a2]c) {d}(c<B)z|
{d}(c2B) (ce2)|{g}(a2f) {g}(e<f)z|v A2vA (e2c)|{c}(c/B3) {G}uA3:|
vA2{c}(A {g}e2)(A|{d}c2)(A {g}e3)|v B2{B}(B {g}f2)(B|{c}d2) {e}(B {g}f2e)|
vA2{A}(A {g}e2)(A|{d}c2) {c}(A ce2)|v{g}(f2e) {g}(a2c)|{d}(c/B3) {G}A2:|

